X:1
T:1
T:1
T:160 Kurze Übungen op. 821
T:Carl Czerny
C:Carl Czerny
%%score { 1 | 2 }
L:1/8
Q:1/4=150
M:4/4
K:C
V:1 treble nm="Piano" snm="Pno."
V:2 treble 
V:1
!p!"^Allegro" !3!e/!5!g/f/g/ !3!e/!4!f/!2!d/!3!e/ !1!c/!5!c'/b/c'/ !3!a/b/!2!g/a/ | %1
 !1!f/!5!a/!4!g/!5!a/ f/g/e/f/ !1!d/!5!f/e/f/ !3!d/e/c/d/ | %2
"_cresc." !1!B/!5!d/c/d/ !3!B/c/A/B/ !1!G/!5!B/A/B/ G/A/F/G/ | %3
 !1!E/!5!G/F/G/ E/F/D/E/ !1!C/!5!E/D/E/ C/D/B,/C/ | %4
 !1!A,/!3!D/!2!^C/!4!E/ !1!D/!3!F/E/!4!G/ !1!F/!3!A/^G/!4!B/ !1!A/!3!d/^c/!4!e/ | %5
 !1!d/!3!f/!2!e/!5!g/ !1!f/!3!a/^g/!4!b/!8va(! !1!a/!3!d'/^c'/!4!e'/ !1!d'/e'/!3!f'/d'/ | %6
 !5!a'/=g'/f'/e'/!8va)! !1!d'/!3!c'/b/a/ !4!g/!3!f/e/d/ !3!c/!2!B/!1!A/!2!B/ | %7
 !3!c/d/c/B/ !1!c/e/g/c'/ .c z z2 |] %8
V:2
 [CG]2 z2 [EG]2 z2 | [DA]2 z2 [F,A,]2 z2 |[K:bass] [G,D]2 z2 [B,,D,G,]2 z2 | %3
 [C,G,]2 z2 [E,G,]2 z2 |!f! [F,,A,,D,]2 z2 z4 | [F,A,D]2 z2 z4 | [G,CE]2 z2 [G,DF]2 z2 | %7
 [CE]2 z2 z4 |] %8

